static/logos/ahrefs-glyph-color.svg

<svg width="42" height="50" viewBox="0 0 42 50" fill="none" xmlns="http://www.w3.org/2000/svg">
<g clip-path="url(#clip0_1_3607)">
<path fill-rule="evenodd" clip-rule="evenodd" d="M41.1243 24.988V49.976H36.6562C35.1115 49.976 32.1882 49.976 32.1882 49.976C32.1882 49.976 32.1882 48.0391 32.1882 47.2988V43.9349L26.0381 47.3559C20.8426 51.279 7.92444 50.7328 3.59216 46.4062C-0.284381 42.5349 -1.22626 32.4308 1.76737 26.8425C3.94245 22.7837 12.6678 19.6334 21.7309 19.6334H28.6136V15.1713V10.9467L16.1028 10.7091H3.59216V5.35456V0H22.3582H41.1243V24.988ZM11.2934 38.1317C9.57225 33.65 13.1486 29.5679 19.8632 28.3471C23.2018 27.7402 26.535 27.137 27.2731 27.0085C27.5491 26.9597 28.6136 27.0085 28.6136 27.0085V31.8399V36.3905C28.6136 36.3905 25.5271 38.3133 24.0614 38.9796C17.6631 41.8905 12.6106 41.555 11.2934 38.1317Z" fill="#FF7D00"/>
</g>
<defs>
<clipPath id="clip0_1_3607">
<rect width="41.1243" height="50" fill="white"/>
</clipPath>
</defs>
</svg>

<svg xmlns="http://www.w3.org/2000/svg" width="53.76" height="64" fill="none" viewBox="0 0 42 50"><g clip-path="url(#a)"><path fill="#FF7D00" fill-rule="evenodd" d="M41.124 24.988v24.988h-8.936v-6.041l-6.15 3.42c-5.195 3.924-18.114 3.378-22.446-.949-3.876-3.871-4.818-13.975-1.825-19.563 2.175-4.06 10.9-7.21 19.964-7.21h6.883v-8.686l-12.511-.238H3.593V0h37.531v24.988Zm-29.83 13.144c-1.722-4.482 1.855-8.564 8.57-9.785 3.338-.607 6.671-1.21 7.41-1.338.275-.05 1.34 0 1.34 0v9.382s-3.087 1.922-4.553 2.589c-6.398 2.91-11.45 2.575-12.768-.848Z" clip-rule="evenodd"/></g><defs><clipPath id="a"><path fill="#fff" d="M0 0h41.124v50H0z"/></clipPath></defs></svg>
